public/img/psychology/b7-3.svg

<?xml version="1.0" encoding="UTF-8"?> <svg xmlns="http://www.w3.org/2000/svg" width="144" height="144" viewBox="0 0 144 144" fill="none"> <path d="M36.2077 36.2048L72 0.704232L107.792 36.2048L107.795 36.2077L143.296 72L107.795 107.792L107.792 107.795L72 143.296L36.2077 107.795L36.2048 107.792L0.704232 72L36.2048 36.2077L36.2077 36.2048Z" stroke="#27B783"></path> <path d="M1 72.5H25.5M143 72.5H121" stroke="#27B783"></path> <path d="M101.434 72.8485L98.7458 69.757V67.4048C98.7458 57.7954 90.9505 50 81.341 50C77.8465 50 74.621 51.0078 71.9333 52.7553C69.2455 51.0082 66.0196 50 62.5255 50C52.9162 50 45.1207 57.7953 45.1207 67.4048V69.757L42.433 72.8485C41.6267 73.7892 41.4252 75.1331 41.9623 76.2755C42.5 77.4179 43.6423 78.1571 44.9193 78.1571H45.1208V82.4579C45.1208 85.2803 47.4055 87.565 50.2279 87.565H54.4616C54.7302 87.565 54.9993 87.8336 54.9993 88.1027V89.9843C54.9993 91.7988 56.4777 93.2098 58.2248 93.2098H67.7001C69.4472 93.2098 70.8585 91.8659 70.9256 90.1183C70.9926 88.1698 71.2617 86.6238 71.6648 85.2128C71.7318 84.9442 71.7993 84.7422 71.9334 84.4736C72.0004 84.7422 72.0679 84.9442 72.202 85.2128C72.6051 86.6243 72.8742 88.2367 72.9412 90.1183C73.0082 91.8654 74.4196 93.2098 76.1667 93.2098H85.642C87.4565 93.2098 88.8675 91.7314 88.8675 89.9843V88.1027C88.8675 87.8341 89.1361 87.565 89.4051 87.565H93.6388C96.4612 87.565 98.7459 85.2803 98.7459 82.4579V78.1571H98.9475C100.224 78.1571 101.367 77.4179 101.904 76.2755C102.442 75.1337 102.307 73.7897 101.434 72.8485H101.434ZM69.1776 84.4744C68.707 86.1544 68.4384 87.9015 68.3713 90.052C68.3713 90.3206 68.1027 90.5897 67.8337 90.5897H58.3584C58.0898 90.5897 57.8207 90.3211 57.8207 90.052V88.1704C57.8207 86.3559 56.3423 84.9449 54.5952 84.9449H50.3615C49.0176 84.9449 47.9423 83.8696 47.9423 82.5257V76.8811C47.9423 76.1418 47.3376 75.5372 46.5984 75.5372L44.9855 75.5367C44.6494 75.5367 44.5149 75.3352 44.5149 75.2006C44.4479 75.0661 44.3804 74.8645 44.5819 74.5959L47.6058 71.1014C47.8074 70.8328 47.9419 70.5637 47.9419 70.2277V67.4053C47.9419 59.2738 54.5274 52.6885 62.6587 52.6885C65.2124 52.6885 67.6987 53.3607 69.7818 54.503C66.2872 57.6614 64.0695 62.2983 64.0695 67.3382C64.0695 69.8245 64.6072 72.2437 65.615 74.5288C66.3542 76.2088 67.4295 77.4857 68.5044 78.6951C68.8405 79.1657 69.2436 79.5688 69.5797 80.039C69.9158 80.4421 70.1844 80.9127 70.5204 81.3159C69.9167 82.3912 69.5136 83.4661 69.1775 84.4743L69.1776 84.4744ZM77.3086 67.4056C77.3086 69.4887 76.8379 71.5719 76.0316 73.4534C75.4269 74.7973 74.4862 75.8726 73.5454 77.015C73.1422 77.4856 72.7391 77.9558 72.403 78.4264C72.2685 78.561 72.2015 78.7625 72.0669 78.897C71.9324 78.7625 71.8654 78.561 71.7308 78.4264C71.3277 77.9558 70.9916 77.4856 70.5885 77.015C69.6477 75.8726 68.7069 74.7303 68.1022 73.4534C67.2285 71.5718 66.8253 69.4887 66.8253 67.4056C66.8253 62.9032 68.9084 58.804 72.1338 56.1163C75.2253 58.804 77.3084 62.8363 77.3084 67.4056H77.3086ZM99.4846 75.2009C99.4175 75.3355 99.283 75.537 99.0139 75.537H97.4684C96.7292 75.537 96.1246 76.1417 96.1246 76.8809V82.5256C96.1246 83.8695 95.0493 84.9448 93.7054 84.9448H89.4716C87.6571 84.9448 86.2462 86.4232 86.2462 88.1703V90.0519C86.2462 90.3205 85.9776 90.5895 85.7085 90.5895L76.1661 90.59C75.8975 90.59 75.6284 90.3884 75.6284 90.0523C75.5614 87.9017 75.2924 86.1547 74.8222 84.4747C74.5536 83.3994 74.083 82.3917 73.5453 81.3833C73.8139 80.9802 74.15 80.5096 74.486 80.1064C74.8221 79.6358 75.2253 79.2326 75.5614 78.7625C76.5692 77.4856 77.712 76.2088 78.4507 74.5962C79.4585 72.3786 79.9962 69.8923 79.9962 67.4056C79.9962 62.2985 77.7786 57.7287 74.284 54.5704C76.367 53.4281 78.8533 52.7559 81.407 52.7559C89.5385 52.7559 96.1238 59.3414 96.1238 67.4727V70.2951C96.1238 70.6312 96.2584 70.8998 96.4599 71.1688L99.4838 74.6633C99.6188 74.7979 99.5518 75.0665 99.4843 75.201L99.4846 75.2009Z" fill="black" stroke="#F0F0F0" stroke-width="1.8"></path> </svg>

<svg xmlns="http://www.w3.org/2000/svg" width="144" height="144" fill="none"><path d="M36.208 36.205L72 .705l35.792 35.5.003.003L143.296 72l-35.501 35.792-.003.003L72 143.296l-35.792-35.501-.003-.003L.705 72l35.5-35.792.003-.003zM1 72.5h24.5m117.5 0h-22" stroke="#27B783"/><path d="M101.434 72.849l-2.688-3.092v-2.352C98.746 57.795 90.95 50 81.34 50c-3.494 0-6.72 1.008-9.408 2.755C69.245 51.008 66.02 50 62.525 50c-9.609 0-17.404 7.795-17.404 17.405v2.352l-2.688 3.091a3.191 3.191 0 00-.47 3.427 3.264 3.264 0 002.956 1.882h.202v4.3a5.105 5.105 0 005.107 5.108h4.234c.268 0 .537.269.537.538v1.881a3.226 3.226 0 003.226 3.226H67.7a3.2 3.2 0 003.226-3.092c.067-1.948.336-3.494.739-4.905a3.28 3.28 0 01.268-.74c.067.27.135.471.269.74.403 1.411.672 3.024.74 4.905a3.2 3.2 0 003.225 3.092h9.475a3.226 3.226 0 003.226-3.226v-1.881c0-.269.268-.538.537-.538h4.234a5.105 5.105 0 005.107-5.107v-4.3h.202c1.276 0 2.419-.74 2.956-1.883.538-1.141.403-2.485-.47-3.427h0zM69.178 84.474c-.471 1.68-.74 3.427-.807 5.578 0 .269-.268.538-.537.538h-9.476c-.268 0-.537-.269-.537-.538V88.17a3.226 3.226 0 00-3.226-3.225h-4.233a2.41 2.41 0 01-2.42-2.42v-5.644c0-.74-.604-1.344-1.344-1.344h-1.612c-.337 0-.471-.202-.471-.336-.067-.135-.135-.336.067-.605l3.024-3.495c.201-.268.336-.537.336-.873v-2.823c0-8.131 6.585-14.717 14.717-14.717 2.553 0 5.04.673 7.123 1.815-3.495 3.158-5.712 7.795-5.712 12.835 0 2.487.537 4.906 1.545 7.19.74 1.68 1.815 2.958 2.89 4.167.336.47.739.874 1.075 1.344.336.403.604.874.94 1.277-.603 1.075-1.006 2.15-1.343 3.158h0zm8.13-17.068c0 2.083-.47 4.166-1.276 6.047-.605 1.344-1.546 2.42-2.487 3.562-.403.47-.806.94-1.142 1.411-.135.135-.202.337-.336.471-.135-.135-.202-.336-.336-.47-.403-.471-.74-.941-1.142-1.412-.941-1.142-1.882-2.285-2.487-3.562-.874-1.881-1.277-3.964-1.277-6.047 0-4.503 2.083-8.602 5.309-11.29 3.091 2.688 5.174 6.72 5.174 11.29h0zM99.486 75.2c-.067.135-.202.336-.471.336h-1.546c-.739 0-1.343.605-1.343 1.344v5.645a2.41 2.41 0 01-2.42 2.419h-4.233a3.226 3.226 0 00-3.226 3.225v1.882c0 .268-.268.537-.537.537l-9.543.001a.53.53 0 01-.538-.538c-.067-2.15-.336-3.897-.806-5.577-.268-1.076-.739-2.083-1.277-3.092.269-.403.605-.873.941-1.277.336-.47.74-.873 1.075-1.343 1.008-1.277 2.151-2.554 2.89-4.167a17.502 17.502 0 001.545-7.19c0-5.108-2.217-9.677-5.712-12.836a14.95 14.95 0 017.123-1.814c8.132 0 14.717 6.585 14.717 14.717v2.822c0 .336.134.605.336.874l3.024 3.494c.135.135.068.404 0 .538h0z" fill="#000" stroke="#F0F0F0" stroke-width="1.8"/></svg>
